X:272
T:When Mandolins Dream
C:by Chris Thile
N:Transcribed by Bob Jackson
L:1/8
Q:1/4=215
M:4/4
K:C
z4 A2 ^c2 | D2 Ad e^f ed | D^F Ad e^f ed | ^FE Ad eg ed | EE A^c eg ec | E^F Ac ea ec | 
^FA Ac ea ec | AG AB eg eB | GB Ad eb ed | BG ^FG AB gd | B_B AG AB gd | _BA G^F GA a^f | 
dB ^FB ^dB b^f | ^de BG Be d'b | ga ea ^c'a e'c' | ad' a^f dg e^c | Ad A^F AD z2 | 
z2 A^c dA d^f | eB eg ^fd fa | d'a ^fd ef gf | ed Bd ^ca ec | A^G A_B =B^F Bd | 
^c^G ce d^F d^f | ba ^g^f ef ge | Bb ^ge ae ^c^c' | ae ^cA dA d^f | eB eg ^fd fa | 
d'a ^fd ef gf | ed Ac Bg dB | GB dg eB eg | ^f^c fa gd gb | ^c'a bg ab c'a | e^f ga fd' af | 
dA ^FE D4 | z2 Ad e^f ed | D^F Ad e^f ed | ^FE Ad eg ed | EE A^c eg ec | E^F Ac ea ec | 
^FA Ac ea ec | AG AB eg eB | GB Ad eb ed | B^G Ad eb ed | ^GB Af ed' ef | BA Af ec' ef | 
AA Ae ec' ee | A^G Ae ec' ee | ^GG Ae eb ee | ^G=G Ad eb ed | GG A^c ea ec | GD zA de ^fe | 
dD ^FA de ^fe | d^F EA de ge | dE EA ^ce ge | ^cE ^FA =ce ae | c^F AA ce ae | 
cA GA Be ge | BG BA de be | dB G^F GA Bg | dB _BA GA Bg | d_B AG ^FG Aa | ^fd B^F B^d Bb | 
^f^d eB GB ed' | bg ae a^c' ae' | ^c'a d'a ^fd ge | ^cA dA ^FA Dz | z6 A2 | _B2 =B^c de ^fe | 
d^c Bd d'b ^fd | ^c'e c'a e^c bd | bg dB ab ag | ^f^d ef ga ba | g^f eB bg eB | 
b^c' c'a ^fd c'd' | d'b ^fd d'^f' e'd' | ^c'_b =bc' d'b ed | ^cA Bd d'b ^fd | 
^c'e c'a e^c bd | bg dB ab ag | ^f^d ef ga ba | g^f eB bg eB | b^c' c'a ^fd c'd' | 
d'b ^fd d'^f' e'd' | ^c'_b =b2 z4 | z6 g2 | ^f2 ef gb gf | ed ^ca ga/g/ ^fg | 
e^f de fg fe | d^c Bg ^fg/f/ ef | de ^cd e^f ed | ^cB _Be de cd/c/ | _B^c =Bb ^fd fd' | 
b^f b^f' d'b fe | eB e^f gb gf | ed ^ca ga/g/ ^fg | e^f de fg fe | d^c Bg ^fg/f/ ef | 
de ^cd e^f ed | ^cB _Be de cd/c/ | _B^c =Bb ^fB dd' | ^c2 ^c'2 [b2B2] z2 | z6 ^C2 | 
B,2 A,^C EA ^ce | ag ^fd A^F DA | e^f gE Ba fD | Ag e^c AE ^CB, | A,^G, =G,D GA Bd | 
ga ^f^c A^F ^CF | A^f gE Ba fd | e^c dA ^FE D2 | z2 ^C2 B,2 A,C | EA ^ce ag ^fd | 
A^F DA e^f gE | Ba ^fD Ag e^c | AE ^CB, A,^G, =G,D | GA Bd ga ^f^c | A^F ^CF A^f gB | 
EG bd Gb ad | ^Fa ^c'^f _Bc' d'b | ^fd Bd fd' d'b | gd Bd gd' d'a | ^fd AG ^FD EG | 
Bd ^cB A_B =Bg | dB _Bg dB Aa | ^fd Bb f^d Gb | ad A^c' ae dA | ^FE D6 | [a2^c2E2A,2] z4 [^c'2e2A2^C2] | 
z8 | z4 A2 ^c2 | DA ag ^fe d^c | BA G^F EB g^D | Bg [g2B2D2] zB gD | ED ^CA g^f ed | 
^cB AG ^FE DA | ^f^F da [d'3f3A3]f | d'A Bc ec' ba | g^f ed cB AG | db Bg d'[g'bd] z2 | 
bg' d^c B^f d'^c' | ba ^ge BA ^GB | AE ^ce a^c' e'2 | a'2 z6 | A2 ^c2 DA ag | 
^fe d^c BA G^F | EB g^D Bg [g2B2=D2] | zB gD ED ^CA | g^f ed ^cB AG | ^FE DA ^fF da | 
[d'2^f2A2] zf d'A Bc | ec' ba g^f ed | cB AG db ag | ^fe d^c BA G^F | da ^fd AA, Ea | 
e^c AD A^f ^Fd | a[d'^fA] z6 | A,2 _B,2 =B,^F de | ^fd _B,^F de fd | A,^F de ^f=f eB | 
G^F EF GB gg | eB ^GB ^gg eB | A,E [a2d2] [a2d2] [a2^c2E2A,2] | z2 [^c'2e2A2] z2 [e'2a2^c2] | 
z8 | A2 ^c2 DA ag | ^fe d^c BA G^F | EB g^D Bg [g2B2=D2] | zB gD ED ^CA | g^f ed ^cB AG | 
^FE DA ^fF da | [d'2^f2A2] zf d'A Bc | ec' ba g^f ed | cB AG db ag | ^fe d^c BA G^F | 
da ^fd AA, Ea | e^c AD A^f ^Fd | a[d'^fA] z6 | z4 A2 ^c2 | D2 Ad e^f ed | D^F Ad e^f ed | 
^FE Ad eg ed | EE A^c eg ec | E^F Ac ea ec | ^FA Ac ea ec | AG AB eg eB | GB Ad eb ed | 
BG ^FG AB gd | B_B AG AB gd | _BA G^F GA a^f | dB ^FB ^dB b^f | ^de BG Be d'b | 
ga ea ^c'a e'c' | ad' a^f dg e^c | Ad A^F AD z2 | z2 A^c dA d^f | eB eg ^fd fa | 
d'a ^fd ef gf | ed Bd ^ca ec | A^G A_B =B^F Bd | ^c^G ce d^F d^f | ba ^g^f ef ge | 
Bb ^ge ae ^c^c' | ae ^cA dA d^f | eB eg ^fd fa | d'a ^fd ef gf | ed Ac Bg dB | 
GB dg eB eg | ^f^c fa gd gb | ^c'a bg ab c'a | e^f ga fd' af | dA ^FE D4 | z2 Ad e^f ed | 
D^F Ad e^f ed | ^FE Ad eg ed | EE A^c eg ec | E^F Ac ea ec | ^FA Ac ea ec | AG AB eg eB | 
GB Ad eb ed | B^G Ad eb ed | ^GB Af ed' ef | BA Af ec' ef | AA Ae ec' ee | A^G Ae ec' ee | 
^GG Ae eb ee | ^G=G Ad eb ed | GG A^c ea ec | GD zA de ^fe | dD ^FA de ^fe | d^F EA de ge | 
dE EA ^ce ge | ^cE ^FA =ce ae | c^F AA ce ae | cA GA Be ge | BG BA de be | dB G^F GA Bg | 
dB _BA GA Bg | d_B AG ^FG Aa | ^fd B^F B^d Bb | ^f^d eB GB ed' | bg ae a^c' ae' | 
^c'a d'a ^fd ge | ^cA dA ^FD GE | ^CA, D^F Ad EG | Be ^FA ^c^f GB | dg A^c ea ^ga | 
b^c' d'2 z4 | z2 [a2^c2E2A,2] z4 | z2 [d'2^f2A2D2] z4 | z8 | 
 

